X: 24381
T: Lovely Day, The
R: hornpipe
M: 4/4
K: Dmajor
(3FGF FE|:D2FA dfaf|g2a.g .fded|cAAB cdef|gedB cAGE|
D2FA dfaf|g2a.g .fded|cAAB cded|1 cAGE (3FGF FE:|2 cABc defg||
|:fgaf d2fd|AFAd ~fd~ed|cAAB cA (3Bcd|eA (3Bcd efge|
(3fgf af d2fd|AFAd ~fd~ed|cAAB cded|1 cABc defg:|2 cAGE (3FGF FE||

